public/Group210.svg

<svg fill="none" height="92" viewBox="0 0 92 92" width="92" xmlns="http://www.w3.org/2000/svg" xmlns:xlink="http://www.w3.org/1999/xlink"><clipPath id="a"><path d="m0 0h30.4045v30.4045h-30.4045z" transform="matrix(.8480481 .52991926 -.52991926 .8480481 40.6366 24.5249)"/></clipPath><rect fill="#f08a4b" fill-opacity=".48" height="66" rx="16" transform="matrix(.8480481 .52991926 -.52991926 .8480481 5.314472 -18.533767)" width="66.7416" x="34.9747"/><g clip-path="url(#a)" fill="#fff"><path d="m58.4664 48.5843c-1.4303-1.5214-2.4365-3.4077-2.9091-5.4545-.4737-2.0519-.3947-4.1937.2286-6.1937.0064-.0205.0064-.0205.2563-.7177.0081-.0224.0161-.0447.0241-.067-2.5898-.5165-5.0334-.5157-7.2952.0064-2.5301.5842-5.0004 1.8686-7.3422 3.8176-1.7378 1.4464-3.1278 3.0371-4.0895 4.2765l-6.0209-3.2119c-.0029-.0015-.006-.0027-.009-.0042-.0161-.0084-.0327-.0158-.0493-.0232-.011-.0049-.022-.0101-.0331-.0145-.0138-.0054-.028-.01-.0421-.0147-.0143-.0049-.0285-.01-.0429-.0141-.0107-.0031-.0215-.0052-.0323-.0079-.0177-.0043-.0354-.0088-.0531-.0119-.0086-.0016-.0174-.0024-.0261-.0037-.0196-.0029-.0393-.0058-.059-.0074-.0095-.0008-.0192-.0007-.0288-.0012-.0186-.0009-.0371-.0019-.0556-.0016-.014.0001-.0279.0014-.0418.0023-.0141.0009-.0281.0013-.0421.0028-.0182.002-.0364.0053-.0546.0084-.0096.0016-.0193.0028-.0289.0048-.0191.0039-.0381.0092-.0571.0144-.0087.0024-.0175.0043-.0261.007-.017.0052-.0337.0117-.0504.018-.0107.004-.0215.0076-.032.012-.0135.0057-.0267.0123-.0399.0188-.0138.0066-.0275.013-.0409.0203-.0102.0055-.0201.0118-.0301.0178-.016.0095-.0319.0192-.0473.0297-.0026.0018-.0055.0032-.0081.0051-.006.0043-.0113.0091-.0172.0134-.0155.0114-.0307.023-.0454.0354-.0091.0076-.0177.0156-.0264.0236-.0125.0115-.0249.023-.0367.0351-.0101.0103-.0196.021-.0291.0317-.0094.0107-.0187.0213-.0277.0325-.0107.0133-.0207.0271-.0306.0409-.0068.0096-.0137.0191-.0201.0289-.0106.0161-.0202.0327-.0297.0494-.0036.0063-.0077.0122-.0112.0187-.0015.0029-.0026.0059-.0042.0089-.0078.0151-.0148.0305-.0217.0459-.0052.0116-.0106.0231-.0152.0348-.0051.0129-.0095.0259-.014.0389-.0051.0148-.0103.0295-.0146.0444-.003.0106-.0054.0212-.0081.0318-.0043.0174-.0085.0348-.0117.0523-.0018.0096-.003.0193-.0045.0289-.0027.0182-.0053.0364-.0068.0545-.0009.0105-.0013.021-.0019.0315-.0009.0171-.0016.0341-.0015.0512 0 .0124.0007.0248.0012.0372.0008.0149.0016.0297.003.0446.0013.0143.0033.0286.0054.0429.0019.0128.0038.0256.0063.0383.0029.0153.0064.0305.0101.0458.003.0119.006.0237.0095.0354.0043.0151.0091.03.0143.0449.0043.0124.009.0247.0139.0369.0053.0134.0108.0267.0169.0398.0066.0145.0138.0287.0212.0429.0055.0104.0108.0209.0167.0312.0102.0178.0213.0349.0327.052.0035.0052.0063.0107.0099.0158l.009.0128c.0006.0008.0011.0016.0017.0024l4.0088 5.7123-1.09 6.9659c-.0005.0034-.0007.0069-.0012.0103-.0015.0105-.0026.0209-.0037.0314-.0018.0169-.0033.0338-.0041.0505-.0004.0087-.0009.0174-.001.0261-.0006.0232-.0002.0463.001.0692.0002.0023.0001.0047.0003.007.0017.0277.0049.0551.0091.0822.0003.0018.0007.0035.001.0053.0041.0244.0091.0484.0151.0721.0013.0052.0027.0103.0041.0155.0058.0216.0125.043.0199.0639.0016.0045.0029.009.0045.0135.009.0241.0188.0478.0298.0709.0031.0066.0067.0129.01.0195.0081.016.0165.0319.0255.0474.0053.0091.0107.018.0164.0269.0088.014.0181.0276.0275.041.0055.0077.0106.0155.0164.0231.0148.0194.0304.0381.0467.0563.0055.0061.0114.012.0171.018.0137.0145.028.0286.0426.0421.0052.0047.0101.0094.0154.014.036.0317.0745.0609.1156.0866.0315.0197.0649.0367.0991.0525.019.0088.0381.0176.0574.0249.005.0019.0103.0032.0154.005.0228.0082.0458.0158.0689.022.0061.0016.0123.0027.0184.0042.0225.0055.0449.0104.0677.0141.0023.0004.0046.0011.007.0015.0069.0011.0137.0013.0206.0021.0191.0025.0382.0048.0573.006.0125.0009.0249.0011.0374.0015.0152.0003.0304.0006.0456.0001.0149-.0004.0298-.0012.0446-.0023.0126-.001.0251-.0022.0377-.0037.0161-.0019.0321-.0042.048-.007.0115-.002.0229-.0044.0343-.0068.0158-.0035.0316-.0071.0472-.0114.012-.0033.0238-.007.0357-.0108.0142-.0046.0284-.0092.0423-.0144.0136-.0051.0269-.0109.0403-.0166.0117-.0052.0235-.0101.035-.0157.0152-.0073.03-.0154.0448-.0237.0094-.0052.0188-.0101.0279-.0157.0156-.0094.0308-.0198.0459-.0302.008-.0055.0162-.0109.024-.0167.0143-.0106.028-.022.0417-.0335.0084-.007.0168-.0138.025-.0211.0114-.0104.0222-.0215.0332-.0325.0098-.0098.0197-.0195.029-.0298.0082-.0091.016-.0187.0239-.0283.0111-.0132.0221-.0265.0323-.0403.0017-.0023.0036-.0043.0053-.0066l4.0303-5.563c1.4064.6892 3.349 1.5046 5.5385 2.0383 2.9488.7188 5.7227.788 8.2448.2057 2.2491-.5192 4.4338-1.5808 6.5242-3.1654-.2968-.3222-.5441-.5908-.5725-.6217z"/><path d="m65.7291 41.7006c.3617-.5989.1847-1.3654-.403-1.7452-.8344-.5394-3.0942-1.9028-6.0602-2.9278-.4907-.1695-.9769-.3216-1.4587-.4571-.0252.0704-.0545.1524-.0891.2487-.1053.2935-.2122.5918-.2378.6634-.5246 1.6934-.5899 3.5077-.1884 5.2468.402 1.741 1.2574 3.3449 2.4741 4.6382.0056.006.0065.007.6499.7058.3868-.3432.7702-.7044 1.1497-1.0847 2.2166-2.2214 3.6501-4.4382 4.1635-5.2881zm-5.4748 1.2711c-.0287.0067-.0576.0116-.0865.0152-.0289.0037-.0581.0057-.0871.0072-.0291.0007-.0581.0001-.0875-.0022-.0289-.002-.0576-.0052-.0862-.0098-.0283-.0051-.0573-.0112-.0849-.0187-.0281-.0077-.0563-.0163-.0833-.0269-.0273-.01-.0542-.0219-.0804-.0348-.0257-.0125-.0518-.0267-.0765-.0422-.0247-.0154-.0489-.0326-.0719-.0505-.0226-.0177-.0451-.0366-.0661-.0567-.0213-.0197-.0413-.0413-.0606-.0631-.0188-.0216-.0371-.0449-.0541-.0681-.0167-.0237-.0327-.0484-.0471-.0736-.0144-.0251-.0277-.0508-.0398-.0773-.0118-.027-.0223-.0539-.0317-.0814-.0094-.0276-.0177-.0558-.0242-.0844-.0527-.2281-.0116-.4733.1123-.6716.0154-.0246.0322-.0491.0501-.0722.018-.0231.0371-.0447.0567-.0661.0202-.0209.0413-.0413.0631-.0606.0223-.019.0449-.037.0686-.0537s.0484-.0327.073-.0474c.0251-.0145.0517-.0279.0779-.0395.0265-.0122.0537-.0232.0812-.0325.0276-.0094.056-.0169.0841-.0238.0286-.0066.0576-.0115.0865-.0152.0288-.0036.0576-.006.087-.0071.0291-.0007.0581-.0001.087.0019s.0581.0055.0864.0106c.0286.0046.0576.0108.0852.0182.0281.0077.056.0167.0833.0269.0273.01.0541.0219.0799.0345.0524.0257.1028.0572.1484.0927.0231.018.0456.0368.0666.057s.0414.0413.0607.0631c.0187.0216.037.0449.0537.0686.017.0233.0325.0477.0469.0727.0149.0254.0281.0512.0403.0777.0114.0267.0223.0538.0318.0813.0094.0277.0176.0559.0242.0845.0527.2281.0115.4732-.1127.672-.1239.1981-.3261.3426-.5543.3953z"/></g></svg>

<svg width="92" height="92" viewBox="0 0 92 92" fill="none" xmlns="http://www.w3.org/2000/svg">
<rect x="34.9747" width="66.7416" height="66" rx="16" transform="rotate(32 34.9747 0)" fill="#F08A4B" fill-opacity="0.48"/>
<g clip-path="url(#clip0_85_48)">
<path d="M58.4664 48.5843C57.0361 47.0629 56.0299 45.1766 55.5573 43.1298C55.0836 41.0779 55.1626 38.9361 55.7859 36.9361C55.7923 36.9156 55.7923 36.9156 56.0422 36.2184C56.0503 36.196 56.0583 36.1737 56.0663 36.1514C53.4765 35.6349 51.0329 35.6357 48.7711 36.1578C46.241 36.742 43.7707 38.0264 41.4289 39.9754C39.6911 41.4218 38.3011 43.0125 37.3394 44.2519L31.3185 41.04C31.3156 41.0385 31.3125 41.0373 31.3095 41.0358C31.2934 41.0274 31.2768 41.02 31.2602 41.0126C31.2492 41.0077 31.2382 41.0025 31.2271 40.9981C31.2133 40.9927 31.1991 40.9881 31.185 40.9834C31.1707 40.9785 31.1565 40.9734 31.1421 40.9693C31.1314 40.9662 31.1206 40.9641 31.1098 40.9614C31.0921 40.9571 31.0744 40.9526 31.0567 40.9495C31.0481 40.9479 31.0393 40.9471 31.0306 40.9458C31.011 40.9429 30.9913 40.94 30.9716 40.9384C30.9621 40.9376 30.9524 40.9377 30.9428 40.9372C30.9242 40.9363 30.9057 40.9353 30.8872 40.9356C30.8732 40.9357 30.8593 40.937 30.8454 40.9379C30.8313 40.9388 30.8173 40.9392 30.8033 40.9407C30.7851 40.9427 30.7669 40.946 30.7487 40.9491C30.7391 40.9507 30.7294 40.9519 30.7198 40.9539C30.7007 40.9578 30.6817 40.9631 30.6627 40.9683C30.654 40.9707 30.6452 40.9726 30.6366 40.9753C30.6196 40.9805 30.6029 40.987 30.5862 40.9933C30.5755 40.9973 30.5647 41.0009 30.5542 41.0053C30.5407 41.011 30.5275 41.0176 30.5143 41.0241C30.5005 41.0307 30.4868 41.0371 30.4734 41.0444C30.4632 41.0499 30.4533 41.0562 30.4433 41.0622C30.4273 41.0717 30.4114 41.0814 30.396 41.0919C30.3934 41.0937 30.3905 41.0951 30.3879 41.097C30.3819 41.1013 30.3766 41.1061 30.3707 41.1104C30.3552 41.1218 30.34 41.1334 30.3253 41.1458C30.3162 41.1534 30.3076 41.1614 30.2989 41.1694C30.2864 41.1809 30.274 41.1924 30.2622 41.2045C30.2521 41.2148 30.2426 41.2255 30.2331 41.2362C30.2237 41.2469 30.2144 41.2575 30.2054 41.2687C30.1947 41.282 30.1847 41.2958 30.1748 41.3096C30.168 41.3192 30.1611 41.3287 30.1547 41.3385C30.1441 41.3546 30.1345 41.3712 30.125 41.3879C30.1214 41.3942 30.1173 41.4001 30.1138 41.4066C30.1123 41.4095 30.1112 41.4125 30.1096 41.4155C30.1018 41.4306 30.0948 41.446 30.0879 41.4614C30.0827 41.473 30.0773 41.4845 30.0727 41.4962C30.0676 41.5091 30.0632 41.5221 30.0587 41.5351C30.0536 41.5499 30.0484 41.5646 30.0441 41.5795C30.0411 41.5901 30.0387 41.6007 30.036 41.6113C30.0317 41.6287 30.0275 41.6461 30.0243 41.6636C30.0225 41.6732 30.0213 41.6829 30.0198 41.6925C30.0171 41.7107 30.0145 41.7289 30.013 41.747C30.0121 41.7575 30.0117 41.768 30.0111 41.7785C30.0102 41.7956 30.0095 41.8126 30.0096 41.8297C30.0096 41.8421 30.0103 41.8545 30.0108 41.8669C30.0116 41.8818 30.0124 41.8966 30.0138 41.9115C30.0151 41.9258 30.0171 41.9401 30.0192 41.9544C30.0211 41.9672 30.023 41.98 30.0255 41.9927C30.0284 42.008 30.0319 42.0232 30.0356 42.0385C30.0386 42.0504 30.0416 42.0622 30.0451 42.0739C30.0494 42.089 30.0542 42.1039 30.0594 42.1188C30.0637 42.1312 30.0684 42.1435 30.0733 42.1557C30.0786 42.1691 30.0841 42.1824 30.0902 42.1955C30.0968 42.21 30.104 42.2242 30.1114 42.2384C30.1169 42.2488 30.1222 42.2593 30.1281 42.2696C30.1383 42.2874 30.1494 42.3045 30.1608 42.3216C30.1643 42.3268 30.1671 42.3323 30.1707 42.3374L30.1797 42.3502C30.1803 42.351 30.1808 42.3518 30.1814 42.3526L34.1902 48.0649L33.1002 55.0308C33.0997 55.0342 33.0995 55.0377 33.099 55.0411C33.0975 55.0516 33.0964 55.062 33.0953 55.0725C33.0935 55.0894 33.092 55.1063 33.0912 55.123C33.0908 55.1317 33.0903 55.1404 33.0902 55.1491C33.0896 55.1723 33.09 55.1954 33.0912 55.2183C33.0914 55.2206 33.0913 55.223 33.0915 55.2253C33.0932 55.253 33.0964 55.2804 33.1006 55.3075C33.1009 55.3093 33.1013 55.311 33.1016 55.3128C33.1057 55.3372 33.1107 55.3612 33.1167 55.3849C33.118 55.3901 33.1194 55.3952 33.1208 55.4004C33.1266 55.422 33.1333 55.4434 33.1407 55.4643C33.1423 55.4688 33.1436 55.4733 33.1452 55.4778C33.1542 55.5019 33.164 55.5256 33.175 55.5487C33.1781 55.5553 33.1817 55.5616 33.185 55.5682C33.1931 55.5842 33.2015 55.6001 33.2105 55.6156C33.2158 55.6247 33.2212 55.6336 33.2269 55.6425C33.2357 55.6565 33.245 55.6701 33.2544 55.6835C33.2599 55.6912 33.265 55.699 33.2708 55.7066C33.2856 55.726 33.3012 55.7447 33.3175 55.7629C33.323 55.769 33.3289 55.7749 33.3346 55.7809C33.3483 55.7954 33.3626 55.8095 33.3772 55.823C33.3824 55.8277 33.3873 55.8324 33.3926 55.837C33.4286 55.8687 33.4671 55.8979 33.5082 55.9236C33.5397 55.9433 33.5731 55.9603 33.6073 55.9761C33.6263 55.9849 33.6454 55.9937 33.6647 56.001C33.6697 56.0029 33.675 56.0042 33.6801 56.006C33.7029 56.0142 33.7259 56.0218 33.749 56.028C33.7551 56.0296 33.7613 56.0307 33.7674 56.0322C33.7899 56.0377 33.8123 56.0426 33.8351 56.0463C33.8374 56.0467 33.8397 56.0474 33.8421 56.0478C33.849 56.0489 33.8558 56.0491 33.8627 56.0499C33.8818 56.0524 33.9009 56.0547 33.92 56.0559C33.9325 56.0568 33.9449 56.057 33.9574 56.0574C33.9726 56.0577 33.9878 56.058 34.003 56.0575C34.0179 56.0571 34.0328 56.0563 34.0476 56.0552C34.0602 56.0542 34.0727 56.053 34.0853 56.0515C34.1014 56.0496 34.1174 56.0473 34.1333 56.0445C34.1448 56.0425 34.1562 56.0401 34.1676 56.0377C34.1834 56.0342 34.1992 56.0306 34.2148 56.0263C34.2268 56.023 34.2386 56.0193 34.2505 56.0155C34.2647 56.0109 34.2789 56.0063 34.2928 56.0011C34.3064 55.996 34.3197 55.9902 34.3331 55.9845C34.3448 55.9793 34.3566 55.9744 34.3681 55.9688C34.3833 55.9615 34.3981 55.9534 34.4129 55.9451C34.4223 55.9399 34.4317 55.935 34.4408 55.9294C34.4564 55.92 34.4716 55.9096 34.4867 55.8992C34.4947 55.8937 34.5029 55.8883 34.5107 55.8825C34.525 55.8719 34.5387 55.8605 34.5524 55.849C34.5608 55.842 34.5692 55.8352 34.5774 55.8279C34.5888 55.8175 34.5996 55.8064 34.6106 55.7954C34.6204 55.7856 34.6303 55.7759 34.6396 55.7656C34.6478 55.7565 34.6556 55.7469 34.6635 55.7373C34.6746 55.7241 34.6856 55.7108 34.6958 55.697C34.6975 55.6947 34.6994 55.6927 34.7011 55.6904L38.7314 50.1274C40.1378 50.8166 42.0804 51.632 44.2699 52.1657C47.2187 52.8845 49.9926 52.9537 52.5147 52.3714C54.7638 51.8522 56.9485 50.7906 59.0389 49.206C58.7421 48.8838 58.4948 48.6152 58.4664 48.5843Z" fill="white"/>
<path d="M65.7291 41.7006C66.0908 41.1017 65.9138 40.3352 65.3261 39.9554C64.4917 39.416 62.2319 38.0526 59.2659 37.0276C58.7752 36.8581 58.289 36.706 57.8072 36.5705C57.782 36.6409 57.7527 36.7229 57.7181 36.8192C57.6128 37.1127 57.5059 37.411 57.4803 37.4826C56.9557 39.176 56.8904 40.9903 57.2919 42.7294C57.6939 44.4704 58.5493 46.0743 59.766 47.3676C59.7716 47.3736 59.7725 47.3746 60.4159 48.0734C60.8027 47.7302 61.1861 47.369 61.5656 46.9887C63.7822 44.7673 65.2157 42.5505 65.7291 41.7006ZM60.2543 42.9717C60.2256 42.9784 60.1967 42.9833 60.1678 42.9869C60.1389 42.9906 60.1097 42.9926 60.0807 42.9941C60.0516 42.9948 60.0226 42.9942 59.9932 42.9919C59.9643 42.9899 59.9356 42.9867 59.907 42.9821C59.8787 42.977 59.8497 42.9709 59.8221 42.9634C59.794 42.9557 59.7658 42.9471 59.7388 42.9365C59.7115 42.9265 59.6846 42.9146 59.6584 42.9017C59.6327 42.8892 59.6066 42.875 59.5819 42.8595C59.5572 42.8441 59.533 42.8269 59.51 42.809C59.4874 42.7913 59.4649 42.7724 59.4439 42.7523C59.4226 42.7326 59.4026 42.711 59.3833 42.6892C59.3645 42.6676 59.3462 42.6443 59.3292 42.6211C59.3125 42.5974 59.2965 42.5727 59.2821 42.5475C59.2677 42.5224 59.2544 42.4967 59.2423 42.4702C59.2305 42.4432 59.22 42.4163 59.2106 42.3888C59.2012 42.3612 59.1929 42.333 59.1864 42.3044C59.1337 42.0763 59.1748 41.8311 59.2987 41.6328C59.3141 41.6082 59.3309 41.5837 59.3488 41.5606C59.3668 41.5375 59.3859 41.5159 59.4055 41.4945C59.4257 41.4736 59.4468 41.4532 59.4686 41.4339C59.4909 41.4149 59.5135 41.3969 59.5372 41.3802C59.5609 41.3635 59.5856 41.3475 59.6102 41.3328C59.6353 41.3183 59.6619 41.3049 59.6881 41.2933C59.7146 41.2811 59.7418 41.2701 59.7693 41.2608C59.7969 41.2514 59.8253 41.2439 59.8534 41.237C59.882 41.2304 59.911 41.2255 59.9399 41.2218C59.9687 41.2182 59.9975 41.2158 60.0269 41.2147C60.056 41.214 60.085 41.2146 60.1139 41.2166C60.1428 41.2186 60.172 41.2221 60.2003 41.2272C60.2289 41.2318 60.2579 41.238 60.2855 41.2454C60.3136 41.2531 60.3415 41.2621 60.3688 41.2723C60.3961 41.2823 60.4229 41.2942 60.4487 41.3068C60.5011 41.3325 60.5515 41.364 60.5971 41.3995C60.6202 41.4175 60.6427 41.4363 60.6637 41.4565C60.6847 41.4767 60.7051 41.4978 60.7244 41.5196C60.7431 41.5412 60.7614 41.5645 60.7781 41.5882C60.7951 41.6115 60.8106 41.6359 60.825 41.6609C60.8399 41.6863 60.8531 41.7121 60.8653 41.7386C60.8767 41.7653 60.8876 41.7924 60.8971 41.8199C60.9065 41.8476 60.9147 41.8758 60.9213 41.9044C60.974 42.1325 60.9328 42.3776 60.8086 42.5764C60.6847 42.7745 60.4825 42.919 60.2543 42.9717Z" fill="white"/>
</g>
<defs>
<clipPath id="clip0_85_48">
<rect width="30.4045" height="30.4045" fill="white" transform="translate(40.6366 24.5249) rotate(32)"/>
</clipPath>
</defs>
</svg>
